Catalina-light/status/24/audio-volume-muted-panel.svg

<?xml version="1.0" encoding="UTF-8" standalone="no"?>
<!-- Created with Inkscape (http://www.inkscape.org/) -->

<svg
   xmlns:dc="http://purl.org/dc/elements/1.1/"
   xmlns:cc="http://creativecommons.org/ns#"
   xmlns:rdf="http://www.w3.org/1999/02/22-rdf-syntax-ns#"
   xmlns:svg="http://www.w3.org/2000/svg"
   xmlns="http://www.w3.org/2000/svg"
   xmlns:xlink="http://www.w3.org/1999/xlink"
   xmlns:sodipodi="http://sodipodi.sourceforge.net/DTD/sodipodi-0.dtd"
   xmlns:inkscape="http://www.inkscape.org/namespaces/inkscape"
   id="svg7384"
   style="enable-background:new"
   height="24"
   width="24"
   version="1.1"
   inkscape:version="0.92.4 (5da689c313, 2019-01-14)"
   sodipodi:docname="audio-volume-off.svg">
  <sodipodi:namedview
     pagecolor="#ffffff"
     bordercolor="#666666"
     borderopacity="1"
     objecttolerance="10"
     gridtolerance="10"
     guidetolerance="10"
     inkscape:pageopacity="0"
     inkscape:pageshadow="2"
     inkscape:window-width="1920"
     inkscape:window-height="1025"
     id="namedview10"
     showgrid="true"
     inkscape:zoom="29.5"
     inkscape:cx="7.2980806"
     inkscape:cy="12.308826"
     inkscape:window-x="0"
     inkscape:window-y="29"
     inkscape:window-maximized="1"
     inkscape:current-layer="svg7384"
     showguides="true"
     inkscape:guide-bbox="true"
     inkscape:lockguides="true"
     inkscape:pagecheckerboard="true">
    <inkscape:grid
       type="xygrid"
       id="grid836" />
    <sodipodi:guide
       position="24.281328,20"
       orientation="1,0"
       id="guide857"
       inkscape:locked="true" />
  </sodipodi:namedview>
  <metadata
     id="metadata90">
    <rdf:RDF>
      <cc:Work
         rdf:about="">
        <dc:format>image/svg+xml</dc:format>
        <dc:type
           rdf:resource="http://purl.org/dc/dcmitype/StillImage" />
        <dc:title>Paper Symbolic Icon Theme</dc:title>
      </cc:Work>
    </rdf:RDF>
  </metadata>
  <title
     id="title8473">Paper Symbolic Icon Theme</title>
  <defs
     id="defs7386">
    <filter
       id="filter7554"
       style="color-interpolation-filters:sRGB">
      <feBlend
         id="feBlend7556"
         in2="BackgroundImage"
         mode="darken" />
    </filter>
    <linearGradient
       gradientTransform="translate(-1,-2)"
       gradientUnits="userSpaceOnUse"
       xlink:href="#linearGradient3678"
       id="linearGradient2868"
       y2="19"
       x2="8.9254236"
       y1="5.9997859"
       x1="8.9254236" />
    <linearGradient
       id="linearGradient3678">
      <stop
         offset="0"
         style="stop-color:#ffffff;stop-opacity:1"
         id="stop3680" />
      <stop
         offset="1"
         style="stop-color:#e6e6e6;stop-opacity:1"
         id="stop3682" />
    </linearGradient>
    <linearGradient
       gradientTransform="translate(-2,-1)"
       gradientUnits="userSpaceOnUse"
       xlink:href="#linearGradient3678"
       id="linearGradient2393"
       y2="21"
       x2="9"
       y1="3"
       x1="9" />
    <linearGradient
       x1="14"
       y1="3"
       x2="14"
       y2="21"
       id="linearGradient2398"
       xlink:href="#linearGradient3587-6-5-3"
       gradientUnits="userSpaceOnUse"
       gradientTransform="translate(-1.0001235,-5)" />
    <linearGradient
       id="linearGradient3587-6-5-3">
      <stop
         id="stop3589-9-2-0"
         style="stop-color:#000000;stop-opacity:1"
         offset="0" />
      <stop
         id="stop3591-7-4-7"
         style="stop-color:#363636;stop-opacity:1"
         offset="1" />
    </linearGradient>
    <linearGradient
       x1="66.09668"
       y1="9.3638258"
       x2="66.09668"
       y2="27.363825"
       id="linearGradient2395"
       xlink:href="#linearGradient3587-6-5-3"
       gradientUnits="userSpaceOnUse"
       gradientTransform="translate(-52.096803,-11.363826)" />
    <linearGradient
       x1="4.9554448"
       y1="2.6841583"
       x2="4.9554448"
       y2="13.496136"
       id="linearGradient7390"
       xlink:href="#linearGradient3587-6-5-3"
       gradientUnits="userSpaceOnUse" />
    <linearGradient
       x1="7.9109159"
       y1="4.5762329"
       x2="7.9109159"
       y2="11.649005"
       id="linearGradient7392"
       xlink:href="#linearGradient3587-6-5-3"
       gradientUnits="userSpaceOnUse" />
    <linearGradient
       x1="10.186814"
       y1="2.7742527"
       x2="10.186814"
       y2="13.317288"
       id="linearGradient7394"
       xlink:href="#linearGradient3587-6-5-3"
       gradientUnits="userSpaceOnUse" />
    <linearGradient
       x1="13.917011"
       y1="0.88217813"
       x2="13.917011"
       y2="15.183488"
       id="linearGradient7396"
       xlink:href="#linearGradient3587-6-5-3"
       gradientUnits="userSpaceOnUse" />
    <linearGradient
       id="linearGradient5263">
      <stop
         id="stop5265"
         style="stop-color:#a0d5ff;stop-opacity:1"
         offset="0" />
      <stop
         id="stop5267"
         style="stop-color:#a0d5ff;stop-opacity:1"
         offset="1" />
    </linearGradient>
    <filter
       style="color-interpolation-filters:sRGB"
       id="filter7554-5">
      <feBlend
         mode="darken"
         in2="BackgroundImage"
         id="feBlend7556-3" />
    </filter>
    <filter
       style="color-interpolation-filters:sRGB"
       id="filter7554-1">
      <feBlend
         mode="darken"
         in2="BackgroundImage"
         id="feBlend7556-9" />
    </filter>
    <filter
       id="filter7554-5-0"
       style="color-interpolation-filters:sRGB">
      <feBlend
         id="feBlend7556-3-6"
         in2="BackgroundImage"
         mode="darken" />
    </filter>
    <filter
       style="color-interpolation-filters:sRGB"
       id="filter7554-8">
      <feBlend
         mode="darken"
         in2="BackgroundImage"
         id="feBlend7556-96" />
    </filter>
  </defs>
  <rect
     style="opacity:1;fill:#555555;fill-opacity:0;stroke:none;stroke-width:6;stroke-linecap:round;stroke-linejoin:round;stroke-miterlimit:4;stroke-dasharray:none;stroke-opacity:1"
     id="rect844"
     width="24.281328"
     height="24"
     x="0"
     y="0" />
  <rect
     style="opacity:0;fill:#000000;fill-opacity:0;stroke:none;stroke-width:0.1;stroke-linecap:round;stroke-linejoin:round;stroke-miterlimit:4;stroke-dasharray:none;stroke-dashoffset:0;stroke-opacity:1;paint-order:fill markers stroke"
     id="rect863"
     width="24"
     height="24"
     x="0"
     y="0" />
  <path
     style="fill:#f5f5f5;fill-opacity:1;stroke:none;stroke-width:1px;stroke-linecap:butt;stroke-linejoin:miter;stroke-opacity:1"
     d="m 0,10 v 3 c 0,1 -0.00369,1 1,1 h 3 l 4,3 V 6 L 4,9 H 1 C 0,9 0,9 0,10 Z"
     id="path833"
     inkscape:connector-curvature="0"
     sodipodi:nodetypes="ccccccccc" />
  <ellipse
     style="opacity:1;fill:#555555;fill-opacity:0;stroke:none;stroke-width:6;stroke-linecap:round;stroke-linejoin:round;stroke-miterlimit:4;stroke-dasharray:none;stroke-opacity:1"
     id="path848"
     cx="-14.5"
     cy="4.2811527"
     rx="4.5"
     ry="7.2811527" />
  <path
     style="color:#000000;font-style:normal;font-variant:normal;font-weight:normal;font-stretch:normal;font-size:medium;line-height:normal;font-family:sans-serif;font-variant-ligatures:normal;font-variant-position:normal;font-variant-caps:normal;font-variant-numeric:normal;font-variant-alternates:normal;font-feature-settings:normal;text-indent:0;text-align:start;text-decoration:none;text-decoration-line:none;text-decoration-style:solid;text-decoration-color:#000000;letter-spacing:normal;word-spacing:normal;text-transform:none;writing-mode:lr-tb;direction:ltr;text-orientation:mixed;dominant-baseline:auto;baseline-shift:baseline;text-anchor:start;white-space:normal;shape-padding:0;clip-rule:nonzero;display:inline;overflow:visible;visibility:visible;opacity:1;isolation:auto;mix-blend-mode:normal;color-interpolation:sRGB;color-interpolation-filters:linearRGB;solid-color:#000000;solid-opacity:1;vector-effect:none;fill:#f5f5f5;fill-opacity:0.39215687;fill-rule:nonzero;stroke:none;stroke-width:0.98387653;stroke-linecap:round;stroke-linejoin:round;stroke-miterlimit:4;stroke-dasharray:none;stroke-dashoffset:0;stroke-opacity:1;color-rendering:auto;image-rendering:auto;shape-rendering:auto;text-rendering:auto;enable-background:accumulate"
     d="m 10.845904,8.524186 a 0.49198745,0.49198745 0 0 0 -0.343149,0.845519 c 0.546487,0.546488 0.883951,1.297038 0.883951,2.133014 0,0.835976 -0.337464,1.586527 -0.883951,2.133014 a 0.4920797,0.4920797 0 1 0 0.695906,0.695905 c 0.723423,-0.723422 1.170824,-1.727079 1.170824,-2.828919 0,-1.10184 -0.447402,-2.105497 -1.170824,-2.82892 A 0.49198745,0.49198745 0 0 0 10.845904,8.524186 Z"
     id="path852"
     inkscape:connector-curvature="0" />
  <path
     style="color:#000000;font-style:normal;font-variant:normal;font-weight:normal;font-stretch:normal;font-size:medium;line-height:normal;font-family:sans-serif;font-variant-ligatures:normal;font-variant-position:normal;font-variant-caps:normal;font-variant-numeric:normal;font-variant-alternates:normal;font-feature-settings:normal;text-indent:0;text-align:start;text-decoration:none;text-decoration-line:none;text-decoration-style:solid;text-decoration-color:#000000;letter-spacing:normal;word-spacing:normal;text-transform:none;writing-mode:lr-tb;direction:ltr;text-orientation:mixed;dominant-baseline:auto;baseline-shift:baseline;text-anchor:start;white-space:normal;shape-padding:0;clip-rule:nonzero;display:inline;overflow:visible;visibility:visible;opacity:1;isolation:auto;mix-blend-mode:normal;color-interpolation:sRGB;color-interpolation-filters:linearRGB;solid-color:#000000;solid-opacity:1;vector-effect:none;fill:#f5f5f5;fill-opacity:0.39215687;fill-rule:nonzero;stroke:none;stroke-width:0.98387653;stroke-linecap:round;stroke-linejoin:round;stroke-miterlimit:4;stroke-dasharray:none;stroke-dashoffset:0;stroke-opacity:1;color-rendering:auto;image-rendering:auto;shape-rendering:auto;text-rendering:auto;enable-background:accumulate"
     d="M 13.385206,5.9848846 A 0.49198745,0.49198745 0 0 0 13.042057,6.829031 c 1.196529,1.196528 1.936732,2.845782 1.936732,4.673688 0,1.827906 -0.740203,3.47716 -1.936732,4.673688 a 0.49198745,0.49198745 0 1 0 0.695906,0.694533 c 1.373464,-1.373463 2.223605,-3.274453 2.223605,-5.368221 0,-2.093769 -0.850141,-3.996131 -2.223605,-5.369594 A 0.49198745,0.49198745 0 0 0 13.385206,5.9848846 Z"
     id="circle854"
     inkscape:connector-curvature="0" />
  <path
     style="color:#000000;font-style:normal;font-variant:normal;font-weight:normal;font-stretch:normal;font-size:medium;line-height:normal;font-family:sans-serif;font-variant-ligatures:normal;font-variant-position:normal;font-variant-caps:normal;font-variant-numeric:normal;font-variant-alternates:normal;font-feature-settings:normal;text-indent:0;text-align:start;text-decoration:none;text-decoration-line:none;text-decoration-style:solid;text-decoration-color:#000000;letter-spacing:normal;word-spacing:normal;text-transform:none;writing-mode:lr-tb;direction:ltr;text-orientation:mixed;dominant-baseline:auto;baseline-shift:baseline;text-anchor:start;white-space:normal;shape-padding:0;clip-rule:nonzero;display:inline;overflow:visible;visibility:visible;opacity:1;isolation:auto;mix-blend-mode:normal;color-interpolation:sRGB;color-interpolation-filters:linearRGB;solid-color:#000000;solid-opacity:1;vector-effect:none;fill:#f5f5f5;fill-opacity:0.39215687;fill-rule:nonzero;stroke:none;stroke-width:0.98387653;stroke-linecap:round;stroke-linejoin:round;stroke-miterlimit:4;stroke-dasharray:none;stroke-dashoffset:0;stroke-opacity:1;color-rendering:auto;image-rendering:auto;shape-rendering:auto;text-rendering:auto;enable-background:accumulate"
     d="m 16,3.37009 a 0.49198745,0.49198745 0 0 0 -0.343149,0.8441463 c 0.932843,0.9328417 1.688491,2.0436867 2.209879,3.2763857 0.521388,1.232699 0.809832,2.587596 0.809832,4.012097 0,1.424502 -0.288444,2.779397 -0.809832,4.012097 -0.521388,1.232699 -1.277036,2.342171 -2.209879,3.275013 a 0.49208021,0.49208021 0 1 0 0.695907,0.695906 c 1.021309,-1.02131 1.848402,-2.236825 2.419886,-3.587965 0.571484,-1.35114 0.886697,-2.837618 0.886697,-4.395051 0,-1.557433 -0.315213,-3.043911 -0.886697,-4.395051 C 18.20116,5.7565282 17.374067,4.5396398 16.352758,3.5183303 A 0.49198745,0.49198745 0 0 0 16,3.37009 Z"
     id="circle858"
     inkscape:connector-curvature="0" />
</svg>

<svg width="24" height="24" enable-background="new" version="1.1" xmlns="http://www.w3.org/2000/svg">
<rect width="24.281" height="24" fill-opacity="0"/>
<rect width="24" height="24" opacity="0" stroke-width=".1" style="paint-order:fill markers stroke"/>
<path d="m0 10v3c0 1-0.00369 1 1 1h3l4 3v-11l-4 3h-3c-1 0-1 0-1 1z" fill="#f5f5f5"/>
<ellipse cx="-14.5" cy="4.2812" rx="4.5" ry="7.2812" fill-opacity="0"/>
<path d="m10.846 8.5242a0.49199 0.49199 0 0 0-0.34315 0.84552c0.54649 0.54649 0.88395 1.297 0.88395 2.133s-0.33746 1.5865-0.88395 2.133a0.49208 0.49208 0 1 0 0.69591 0.6959c0.72342-0.72342 1.1708-1.7271 1.1708-2.8289s-0.4474-2.1055-1.1708-2.8289a0.49199 0.49199 0 0 0-0.35276-0.14961z" color="#000000" color-rendering="auto" dominant-baseline="auto" enable-background="accumulate" fill="#f5f5f5" fill-opacity=".39216" image-rendering="auto" shape-rendering="auto" solid-color="#000000" style="font-feature-settings:normal;font-variant-alternates:normal;font-variant-caps:normal;font-variant-ligatures:normal;font-variant-numeric:normal;font-variant-position:normal;isolation:auto;mix-blend-mode:normal;shape-padding:0;text-decoration-color:#000000;text-decoration-line:none;text-decoration-style:solid;text-indent:0;text-orientation:mixed;text-transform:none;white-space:normal"/>
<path d="m13.385 5.9849a0.49199 0.49199 0 0 0-0.34315 0.84415c1.1965 1.1965 1.9367 2.8458 1.9367 4.6737s-0.7402 3.4772-1.9367 4.6737a0.49199 0.49199 0 1 0 0.69591 0.69453c1.3735-1.3735 2.2236-3.2745 2.2236-5.3682 0-2.0938-0.85014-3.9961-2.2236-5.3696a0.49199 0.49199 0 0 0-0.35276-0.14824z" color="#000000" color-rendering="auto" dominant-baseline="auto" enable-background="accumulate" fill="#f5f5f5" fill-opacity=".39216" image-rendering="auto" shape-rendering="auto" solid-color="#000000" style="font-feature-settings:normal;font-variant-alternates:normal;font-variant-caps:normal;font-variant-ligatures:normal;font-variant-numeric:normal;font-variant-position:normal;isolation:auto;mix-blend-mode:normal;shape-padding:0;text-decoration-color:#000000;text-decoration-line:none;text-decoration-style:solid;text-indent:0;text-orientation:mixed;text-transform:none;white-space:normal"/>
<path d="m16 3.3701a0.49199 0.49199 0 0 0-0.34315 0.84415c0.93284 0.93284 1.6885 2.0437 2.2099 3.2764s0.80983 2.5876 0.80983 4.0121c0 1.4245-0.28844 2.7794-0.80983 4.0121-0.52139 1.2327-1.277 2.3422-2.2099 3.275a0.49208 0.49208 0 1 0 0.69591 0.69591c1.0213-1.0213 1.8484-2.2368 2.4199-3.588s0.8867-2.8376 0.8867-4.3951-0.31521-3.0439-0.8867-4.3951c-0.57148-1.3511-1.3986-2.568-2.4199-3.5893a0.49199 0.49199 0 0 0-0.35276-0.14824z" color="#000000" color-rendering="auto" dominant-baseline="auto" enable-background="accumulate" fill="#f5f5f5" fill-opacity=".39216" image-rendering="auto" shape-rendering="auto" solid-color="#000000" style="font-feature-settings:normal;font-variant-alternates:normal;font-variant-caps:normal;font-variant-ligatures:normal;font-variant-numeric:normal;font-variant-position:normal;isolation:auto;mix-blend-mode:normal;shape-padding:0;text-decoration-color:#000000;text-decoration-line:none;text-decoration-style:solid;text-indent:0;text-orientation:mixed;text-transform:none;white-space:normal"/>
</svg>
